X: 5
T: Pipe On The Hob, The
Z: janglecrow
S: https://thesession.org/tunes/81#setting26906
R: jig
M: 6/8
L: 1/8
K: Ador
A2B|:c3 edc| edc BAG|ABA g3|eaf ged|
c3 edc|edc deg|age dBe|1 ABA A2B:|2 ABA A2f||
|:g3 gea|age edB|ABA g3|eaf gef|
g3 gea|age deg|age dBe|1 ABA A2f:|2 ABA A2B||
|:c3 dcd|ecA AGE|c3 dcd|ecA A2B|
cBc dcd|ede gab|age dBe|ABA A2B:|
